static/cards/FrenchDeck/default/card_diamonds_10.svg

<svg width="219" height="304" viewBox="0 0 219 304" fill="none" xmlns="http://www.w3.org/2000/svg">
<g filter="url(#filter0_d_18_651)">
<g clip-path="url(#clip0_18_651)">
<rect x="8" y="4" width="203" height="288" rx="10" fill="white"/>
<path d="M15.4787 44.2002C14.3977 44.2002 13.737 43.4595 13.737 42.2783V18.395C13.737 17.2139 14.3977 16.4731 15.4787 16.4731C16.5598 16.4731 17.2404 17.2139 17.2404 18.395V42.2783C17.2404 43.4595 16.5598 44.2002 15.4787 44.2002ZM18.2454 30.8672V29.8662C18.2454 21.5781 21.7889 16.0928 27.9749 16.0928C34.1609 16.0928 37.6844 21.5781 37.6844 29.8662V30.8672C37.6844 39.1353 34.1409 44.5806 27.9549 44.5806C21.7889 44.5806 18.2454 39.1553 18.2454 30.8672ZM21.7488 29.8862V30.8271C21.7488 37.4937 24.1312 41.5576 27.9749 41.5576C31.8187 41.5576 34.201 37.4937 34.201 30.8271V29.8862C34.201 23.2197 31.7986 19.1357 27.9549 19.1357C24.1312 19.1357 21.7488 23.2197 21.7488 29.8862Z" fill="#BC1E24"/>
<path d="M26.1801 52.104C26.1038 51.9653 25.8962 51.9653 25.8199 52.104C23.5263 56.2724 21.8722 58.4782 18.5553 61.8648C18.4816 61.9401 18.4816 62.0599 18.5553 62.1352C21.8722 65.5218 23.5263 67.7276 25.8199 71.896C25.8962 72.0347 26.1038 72.0347 26.1801 71.896C28.4737 67.7276 30.1278 65.5218 33.4447 62.1352C33.5184 62.0599 33.5184 61.9401 33.4447 61.8648C30.1278 58.4782 28.4737 56.2724 26.1801 52.104Z" fill="#BC1E24"/>
<path d="M203.521 251.8C204.602 251.8 205.263 252.541 205.263 253.722L205.263 277.605C205.263 278.786 204.602 279.527 203.521 279.527C202.44 279.527 201.76 278.786 201.76 277.605L201.76 253.722C201.76 252.541 202.44 251.8 203.521 251.8ZM200.755 265.133L200.755 266.134C200.755 274.422 197.211 279.907 191.025 279.907C184.839 279.907 181.316 274.422 181.316 266.134L181.316 265.133C181.316 256.865 184.859 251.419 191.045 251.419C197.211 251.419 200.755 256.845 200.755 265.133ZM197.251 266.114L197.251 265.173C197.251 258.506 194.869 254.442 191.025 254.442C187.181 254.442 184.799 258.506 184.799 265.173L184.799 266.114C184.799 272.78 187.201 276.864 191.045 276.864C194.869 276.864 197.251 272.78 197.251 266.114Z" fill="#BC1E24"/>
<path d="M192.82 243.896C192.896 244.035 193.104 244.035 193.18 243.896C195.474 239.728 197.128 237.522 200.445 234.135C200.518 234.06 200.518 233.94 200.445 233.865C197.128 230.478 195.474 228.272 193.18 224.104C193.104 223.965 192.896 223.965 192.82 224.104C190.526 228.272 188.872 230.478 185.555 233.865C185.482 233.94 185.482 234.06 185.555 234.135C188.872 237.522 190.526 239.728 192.82 243.896Z" fill="#BC1E24"/>
<path d="M65.9501 27.2599C65.7594 26.9134 65.2406 26.9134 65.0499 27.2599C59.3158 37.6809 55.1805 43.1955 46.8882 51.6621C46.7039 51.8503 46.7039 52.1498 46.8882 52.338C55.1805 60.8045 59.3158 66.3191 65.0499 76.7401C65.2406 77.0866 65.7594 77.0866 65.9501 76.7401C71.6842 66.3191 75.8195 60.8045 84.1118 52.338C84.2961 52.1498 84.2961 51.8503 84.1118 51.6621C75.8195 43.1955 71.6842 37.6809 65.9501 27.2599Z" fill="#BC1E24"/>
<path d="M65.9501 219.26C65.7594 218.913 65.2406 218.913 65.0499 219.26C59.3158 229.681 55.1805 235.196 46.8882 243.662C46.7039 243.85 46.7039 244.15 46.8882 244.338C55.1805 252.804 59.3158 258.319 65.0499 268.74C65.2406 269.087 65.7594 269.087 65.9501 268.74C71.6842 258.319 75.8195 252.804 84.1118 244.338C84.2961 244.15 84.2961 243.85 84.1118 243.662C75.8195 235.196 71.6842 229.681 65.9501 219.26Z" fill="#BC1E24"/>
<path d="M153.95 27.2599C153.759 26.9134 153.241 26.9134 153.05 27.2599C147.316 37.6809 143.181 43.1955 134.888 51.6621C134.704 51.8503 134.704 52.1498 134.888 52.338C143.181 60.8045 147.316 66.3191 153.05 76.7401C153.241 77.0866 153.759 77.0866 153.95 76.7401C159.684 66.3191 163.819 60.8045 172.112 52.338C172.296 52.1498 172.296 51.8503 172.112 51.6621C163.819 43.1955 159.684 37.6809 153.95 27.2599Z" fill="#BC1E24"/>
<path d="M65.9501 91.2599C65.7594 90.9134 65.2406 90.9134 65.0499 91.2599C59.3158 101.681 55.1805 107.196 46.8882 115.662C46.7039 115.85 46.7039 116.15 46.8882 116.338C55.1805 124.804 59.3158 130.319 65.0499 140.74C65.2406 141.087 65.7594 141.087 65.9501 140.74C71.6842 130.319 75.8195 124.804 84.1118 116.338C84.2961 116.15 84.2961 115.85 84.1118 115.662C75.8195 107.196 71.6842 101.681 65.9501 91.2599Z" fill="#BC1E24"/>
<path d="M65.9501 155.26C65.7594 154.913 65.2406 154.913 65.0499 155.26C59.3158 165.681 55.1805 171.196 46.8882 179.662C46.7039 179.85 46.7039 180.15 46.8882 180.338C55.1805 188.804 59.3158 194.319 65.0499 204.74C65.2406 205.087 65.7594 205.087 65.9501 204.74C71.6842 194.319 75.8195 188.804 84.1118 180.338C84.2961 180.15 84.2961 179.85 84.1118 179.662C75.8195 171.196 71.6842 165.681 65.9501 155.26Z" fill="#BC1E24"/>
<path d="M153.95 91.2599C153.759 90.9134 153.241 90.9134 153.05 91.2599C147.316 101.681 143.181 107.196 134.888 115.662C134.704 115.85 134.704 116.15 134.888 116.338C143.181 124.804 147.316 130.319 153.05 140.74C153.241 141.087 153.759 141.087 153.95 140.74C159.684 130.319 163.819 124.804 172.112 116.338C172.296 116.15 172.296 115.85 172.112 115.662C163.819 107.196 159.684 101.681 153.95 91.2599Z" fill="#BC1E24"/>
<path d="M109.95 59.2599C109.759 58.9134 109.241 58.9134 109.05 59.2599C103.316 69.6809 99.1805 75.1955 90.8882 83.6621C90.7039 83.8503 90.7039 84.1498 90.8882 84.338C99.1805 92.8045 103.316 98.3191 109.05 108.74C109.241 109.087 109.759 109.087 109.95 108.74C115.684 98.3191 119.819 92.8045 128.112 84.338C128.296 84.1498 128.296 83.8503 128.112 83.6621C119.819 75.1955 115.684 69.6809 109.95 59.2599Z" fill="#BC1E24"/>
<path d="M109.95 187.26C109.759 186.913 109.241 186.913 109.05 187.26C103.316 197.681 99.1805 203.196 90.8882 211.662C90.7039 211.85 90.7039 212.15 90.8882 212.338C99.1805 220.804 103.316 226.319 109.05 236.74C109.241 237.087 109.759 237.087 109.95 236.74C115.684 226.319 119.819 220.804 128.112 212.338C128.296 212.15 128.296 211.85 128.112 211.662C119.819 203.196 115.684 197.681 109.95 187.26Z" fill="#BC1E24"/>
<path d="M153.95 155.26C153.759 154.913 153.241 154.913 153.05 155.26C147.316 165.681 143.181 171.196 134.888 179.662C134.704 179.85 134.704 180.15 134.888 180.338C143.181 188.804 147.316 194.319 153.05 204.74C153.241 205.087 153.759 205.087 153.95 204.74C159.684 194.319 163.819 188.804 172.112 180.338C172.296 180.15 172.296 179.85 172.112 179.662C163.819 171.196 159.684 165.681 153.95 155.26Z" fill="#BC1E24"/>
<path d="M153.95 219.26C153.759 218.913 153.241 218.913 153.05 219.26C147.316 229.681 143.181 235.196 134.888 243.662C134.704 243.85 134.704 244.15 134.888 244.338C143.181 252.804 147.316 258.319 153.05 268.74C153.241 269.087 153.759 269.087 153.95 268.74C159.684 258.319 163.819 252.804 172.112 244.338C172.296 244.15 172.296 243.85 172.112 243.662C163.819 235.196 159.684 229.681 153.95 219.26Z" fill="#BC1E24"/>
</g>
</g>
<defs>
<filter id="filter0_d_18_651" x="0" y="0" width="219" height="304" filterUnits="userSpaceOnUse" color-interpolation-filters="sRGB">
<feFlood flood-opacity="0" result="BackgroundImageFix"/>
<feColorMatrix in="SourceAlpha" type="matrix" values="0 0 0 0 0 0 0 0 0 0 0 0 0 0 0 0 0 0 127 0" result="hardAlpha"/>
<feOffset dy="4"/>
<feGaussianBlur stdDeviation="4"/>
<feComposite in2="hardAlpha" operator="out"/>
<feColorMatrix type="matrix" values="0 0 0 0 0.614771 0 0 0 0 0.70094 0 0 0 0 0.806257 0 0 0 1 0"/>
<feBlend mode="normal" in2="BackgroundImageFix" result="effect1_dropShadow_18_651"/>
<feBlend mode="normal" in="SourceGraphic" in2="effect1_dropShadow_18_651" result="shape"/>
</filter>
<clipPath id="clip0_18_651">
<rect x="8" y="4" width="203" height="288" rx="10" fill="white"/>
</clipPath>
</defs>
</svg>

<svg xmlns="http://www.w3.org/2000/svg" width="219" height="304" fill="none" viewBox="0 0 219 304"><g filter="url(#a)"><g clip-path="url(#b)"><rect width="203" height="288" x="8" y="4" fill="#fff" rx="10"/><path fill="#bc1e24" d="M15.479 44.2c-1.081 0-1.742-.74-1.742-1.922V18.395c0-1.181.66-1.922 1.742-1.922 1.08 0 1.761.74 1.761 1.922v23.883c0 1.181-.68 1.922-1.761 1.922m2.766-13.333v-1c0-8.289 3.544-13.774 9.73-13.774s9.71 5.485 9.71 13.773v1.001c0 8.268-3.544 13.714-9.73 13.714-6.166 0-9.71-5.426-9.71-13.714m3.504-.98v.94c0 6.667 2.382 10.73 6.226 10.73s6.226-4.063 6.226-10.73v-.94c0-6.667-2.402-10.751-6.246-10.751-3.824 0-6.206 4.084-6.206 10.75M26.18 52.104a.208.208 0 0 0-.36 0c-2.294 4.168-3.948 6.374-7.265 9.76a.193.193 0 0 0 0 .271c3.317 3.387 4.971 5.593 7.265 9.761a.208.208 0 0 0 .36 0c2.294-4.168 3.948-6.374 7.265-9.76a.193.193 0 0 0 0-.271c-3.317-3.387-4.971-5.593-7.265-9.761M203.521 251.8c1.081 0 1.742.741 1.742 1.922v23.883c0 1.181-.661 1.922-1.742 1.922s-1.761-.741-1.761-1.922v-23.883c0-1.181.68-1.922 1.761-1.922m-2.766 13.333v1.001c0 8.288-3.544 13.773-9.73 13.773s-9.709-5.485-9.709-13.773v-1.001c0-8.268 3.543-13.714 9.729-13.714 6.166 0 9.71 5.426 9.71 13.714m-3.504.981v-.941c0-6.667-2.382-10.731-6.226-10.731s-6.226 4.064-6.226 10.731v.941c0 6.666 2.402 10.75 6.246 10.75 3.824 0 6.206-4.084 6.206-10.75M192.82 243.896a.208.208 0 0 0 .36 0c2.294-4.168 3.948-6.374 7.265-9.761a.194.194 0 0 0 0-.27c-3.317-3.387-4.971-5.593-7.265-9.761a.208.208 0 0 0-.36 0c-2.294 4.168-3.948 6.374-7.265 9.761a.194.194 0 0 0 0 .27c3.317 3.387 4.971 5.593 7.265 9.761M65.95 27.26a.52.52 0 0 0-.9 0c-5.734 10.42-9.87 15.936-18.162 24.402a.48.48 0 0 0 0 .676c8.293 8.466 12.428 13.981 18.162 24.402a.52.52 0 0 0 .9 0c5.734-10.42 9.87-15.935 18.162-24.402a.48.48 0 0 0 0-.676C75.82 43.196 71.684 37.681 65.95 27.26M65.95 219.26a.52.52 0 0 0-.9 0c-5.734 10.421-9.87 15.936-18.162 24.402a.48.48 0 0 0 0 .676c8.293 8.466 12.428 13.981 18.162 24.402a.52.52 0 0 0 .9 0c5.734-10.421 9.87-15.936 18.162-24.402a.48.48 0 0 0 0-.676c-8.292-8.466-12.428-13.981-18.162-24.402M153.95 27.26a.52.52 0 0 0-.9 0c-5.734 10.42-9.869 15.936-18.162 24.402a.483.483 0 0 0 0 .676c8.293 8.466 12.428 13.981 18.162 24.402a.52.52 0 0 0 .9 0c5.734-10.42 9.869-15.935 18.162-24.402a.483.483 0 0 0 0-.676c-8.293-8.466-12.428-13.981-18.162-24.402M65.95 91.26a.52.52 0 0 0-.9 0c-5.734 10.421-9.87 15.936-18.162 24.402a.48.48 0 0 0 0 .676c8.293 8.466 12.428 13.981 18.162 24.402a.52.52 0 0 0 .9 0c5.734-10.421 9.87-15.936 18.162-24.402a.48.48 0 0 0 0-.676c-8.292-8.466-12.428-13.981-18.162-24.402M65.95 155.26a.52.52 0 0 0-.9 0c-5.734 10.421-9.87 15.936-18.162 24.402a.48.48 0 0 0 0 .676c8.293 8.466 12.428 13.981 18.162 24.402a.52.52 0 0 0 .9 0c5.734-10.421 9.87-15.936 18.162-24.402a.48.48 0 0 0 0-.676c-8.292-8.466-12.428-13.981-18.162-24.402M153.95 91.26a.52.52 0 0 0-.9 0c-5.734 10.421-9.869 15.936-18.162 24.402a.483.483 0 0 0 0 .676c8.293 8.466 12.428 13.981 18.162 24.402a.52.52 0 0 0 .9 0c5.734-10.421 9.869-15.936 18.162-24.402a.483.483 0 0 0 0-.676c-8.293-8.466-12.428-13.981-18.162-24.402M109.95 59.26a.52.52 0 0 0-.9 0c-5.734 10.42-9.87 15.935-18.162 24.402a.48.48 0 0 0 0 .676c8.292 8.467 12.428 13.981 18.162 24.402a.52.52 0 0 0 .9 0c5.734-10.42 9.869-15.935 18.162-24.402a.483.483 0 0 0 0-.676c-8.293-8.467-12.428-13.981-18.162-24.402M109.95 187.26a.52.52 0 0 0-.9 0c-5.734 10.421-9.87 15.936-18.162 24.402a.48.48 0 0 0 0 .676c8.292 8.466 12.428 13.981 18.162 24.402a.52.52 0 0 0 .9 0c5.734-10.421 9.869-15.936 18.162-24.402a.483.483 0 0 0 0-.676c-8.293-8.466-12.428-13.981-18.162-24.402M153.95 155.26a.52.52 0 0 0-.9 0c-5.734 10.421-9.869 15.936-18.162 24.402a.483.483 0 0 0 0 .676c8.293 8.466 12.428 13.981 18.162 24.402a.52.52 0 0 0 .9 0c5.734-10.421 9.869-15.936 18.162-24.402a.483.483 0 0 0 0-.676c-8.293-8.466-12.428-13.981-18.162-24.402M153.95 219.26a.52.52 0 0 0-.9 0c-5.734 10.421-9.869 15.936-18.162 24.402a.483.483 0 0 0 0 .676c8.293 8.466 12.428 13.981 18.162 24.402a.52.52 0 0 0 .9 0c5.734-10.421 9.869-15.936 18.162-24.402a.483.483 0 0 0 0-.676c-8.293-8.466-12.428-13.981-18.162-24.402"/></g></g><defs><clipPath id="b"><rect width="203" height="288" x="8" y="4" fill="#fff" rx="10"/></clipPath><filter id="a" width="219" height="304" x="0" y="0" color-interpolation-filters="sRGB" filterUnits="userSpaceOnUse"><feFlood flood-opacity="0" result="BackgroundImageFix"/><feColorMatrix in="SourceAlpha" result="hardAlpha" values="0 0 0 0 0 0 0 0 0 0 0 0 0 0 0 0 0 0 127 0"/><feOffset dy="4"/><feGaussianBlur stdDeviation="4"/><feComposite in2="hardAlpha" operator="out"/><feColorMatrix values="0 0 0 0 0.614771 0 0 0 0 0.70094 0 0 0 0 0.806257 0 0 0 1 0"/><feBlend in2="BackgroundImageFix" result="effect1_dropShadow_18_651"/><feBlend in="SourceGraphic" in2="effect1_dropShadow_18_651" result="shape"/></filter></defs></svg>
